X: 42175
T: Waterford
R: waltz
M: 3/4
K: Dmajor
|:E/F/G|A2- Ad cd|B2- Be ed|c^B cA Bc|df a2 FG|
A2 A2 dc|B2 B2 ed|c2- cB c/B/A|d2 D2:|
|:d/e/f|g2 Ac eg|f2 Ad f/e/d|c2 ge dc|df a2 ef|
ge Ac e2|fd Ad f2|ce ge e/d/c|d2 D2:|
|:FG|Ad Fd Ad|Bd Gd B/c/d|c2 ge dc|df af dF|
Ad F2 Ad|Bd G2 Bd|ce ge e/d/c|1 e2 d2:|2 e2 d3||
|:f/|a2 ab c’d’|b2 g2 g2|fd ge f/e/d|ed cB A>f|
a2- ab c’d’|b2 g2- gf|fd ge dc|1 e2 d3:|2 e2 d2||

